X:1
T:Title
%%score ( 1 2 ) { 3 | 4 }
L:1/8
Q:1/4=100
M:4/4
K:G
V:1 treble nm="Grand Piano, Soprano"
V:2 treble 
V:3 bass nm="Choir Pad, Let the Master In"
V:4 bass 
V:1
 [B,G][CA] [DB]2 [DB]2 [DB]2 | [CA][B,G] [CA]2 [CE]2 [CE]2 | E[DG] [DF]2 [DF][DG] [FA]2 | %3
w: By~Robert~Lowry * * * *|||
 [GB][Ac] [GB]6 | [DG][DA] [GB]2 [GB]2 [GB]2 | [DA][DG] [EA]2 [CE]2 [CE]2 | %6
w: |||
 E[DG] [DF]2 [DF][DG] [GB]2 | [FA]>[FA] G6 | Bc [Gd]4 [Gd]2- | [Gd]2 c2- [Fc]2 c-[Gc-] | %10
w: ||||
 [Ac-][Fc] [DB]2 [DB]2 [DB][Dc] | [Dd][DB] A4 d2 | [Dd][Dc] [DB]2 [DB]>[DB] [GB]2 | %13
w: |||
 [DA][DG] [EA]2 [CE]2 [CE]2 | E[DG] [DF]2 FG [FA]2 | [FA]2 G6- | G2 z2 z4 |] %17
w: ||||
V:2
 x8 | x8 | x8 | x8 | x8 | x8 | x8 | x8 | D2 z2 z4 | z2 F2 z2 .F2 | x8 | z2 D6 | x8 | x8 | %14
 z4 D2 z2 | x8 | x8 |] %17
V:3
 G,G, G,2 G,2 G,2 | G,G, E,2 G,2 G,2 | G,G, A,2 A,B,[K:treble] D2 | DD D6 | B,C D2 D2 D2 | %5
 C[K:bass]B, C2 G,2 G,2 | G,G, A,2 A,B,[K:treble] D2 | D>C B,6 | G,[K:bass]A, B,2 B,2 B,C | %9
 DB, A,4 A,2- | A,2 z2 z2 z A, | B,G, F,2 F,F,F,A, | G,F, G,2 G,>B,[K:treble] D2 | %13
 CB, C2 G,2[K:bass] G,2 | G,G, A,2 A,B, D2 | C2 B,6- | B,2 z2 z4 |] %17
V:4
 z8 | z2 C,2 C,2 C,2 | C,B,, D,2 D,D, D,2 | D,D, G,6 | G,G, G,2 G,2 G,2 | G,G, C,2 C,2 C,2 | %6
 C,B,, D,2 D,D, D,2 | D,>D, G,,6 | z2 G,2 G,2 G,A, | B,G, D,2 D,2 D,E, | F,D, G,2 G,2 G,G, | %11
 .G,2 D,2 D,D,D,C, | B,,A,, G,,2 z z/ G,/ G,2 | G,G, C,2 C,2 C,2 | C,B,, D,2 D,2 D,2 | D,2 G,,6- | %16
 G,,2 z2 z4 |] %17

